X: 30
T:Trip to Durrow
B:Dave Bulmer I
M:C
L:1/8
K:D
D2 FD ADFA| defd B2 Bc| dBBA dBBA| FADE FE ~E2| 
D2 FD ADFA| defd B2 Bc | dBBA FAdB| AFGE FD D2 :|
~d2 de fefg| afdf gfed| cdef gebe| gebe gfec|
dcde fefg| afdf gfed| cdef gbag| fdec d2 de|
fdec d2 de | fded B2 Bc| dBBA dBBA| FADE FE ~E2|
D2 FD ADFA| defd B2 Bc| dBBA FAdB| AFGE FD D2 :|
